X:655
%%etbk:tnset id:398,pos:1,rep:3x,ant:
%%etbk:wsite https://thesession.org/tunes/2837
%%etbk:video src:ytube,cde:NyyOBQ-Wl1s,desc:
%%etbk:pldat 2016-07-24T17:01,2016-05-29T16:09,2015-05-05T18:05,2015-04-03T15:14,2015-03-31T17:19
T: The West Wind
Z: Piano Box Version by Martin Fleischmann
H: Created 2015-03-29 /  Last Modified 2015-03-31
R: reel
M: 4/4
L: 1/8
K: Gmaj
"D-Drone"!3!B/c/d !1!GA !3!BGdB | !2!A!1!DF!3!G !2!ABcA | B/c/d GA BGdB | !4!cA!1!FG AG G2 |
B/c/d GA BGdB | ADFG ABcA | G2 Bd g2 ge | fdcA AG G2 ||
|G2 Bd !5!g2 g!4!e | !5!f2 fd ABcA | G2 Bd g2 ge | fdcA BGFA |
G2 Bd g2 ge | f2 fd ABcA | dg g2 bgag |fdcA AGGA ||
|B2 GB B2 GB | A2 FA A2 FA | B2 GB B2 GB | cAFG AGGA |
B2 GB GBdB | A2 FA dAFA | G2 Bd g2 ge |fdcA AG G2 ||


